src/icons/svgs/24/stop.svg

<svg width="24" height="24" viewBox="0 0 24 24" fill="none" xmlns="http://www.w3.org/2000/svg">
<path d="M18 3H6C4.34297 3 3 4.34612 3 6.00705V17.993C3 19.6539 4.34297 21 6 21H18C19.657 21 21 19.6539 21 17.993V6.00705C21 4.34612 19.6547 3 18 3ZM18.75 18.0352C18.75 18.4497 18.4135 18.787 18 18.787H6C5.58647 18.787 5.25 18.4497 5.25 18.0352V6.00705C5.25 5.59255 5.58647 5.25529 6 5.25529H18C18.4135 5.25529 18.75 5.59255 18.75 6.00705V18.0352Z" fill="black"/>
</svg>

<svg width="24" height="24" viewBox="0 0 24 24" xmlns="http://www.w3.org/2000/svg">
    <path d="M18 3H6C4.343 3 3 4.346 3 6.007v11.986A3.003 3.003 0 0 0 6 21h12c1.657 0 3-1.346 3-3.007V6.007A3.005 3.005 0 0 0 18 3zm.75 15.035a.752.752 0 0 1-.75.752H6a.752.752 0 0 1-.75-.752V6.007c0-.414.336-.752.75-.752h12c.413 0 .75.338.75.752v12.028z"/>
</svg>
